X:1
T:Ardo, ardo si
T:Ardo, ardo si
T:Enrico Radesca di Foggia
T:Source : Canzonette, madrigale & arie---Libro I---Milano---Heredes S.Tini & F.Lomazzi---1606. Editor : André Vierendeels (18/03/14).
C:Enrico Radesca di Foggia
%%score [ 1 2 ] 3
L:1/8
Q:1/4=120
M:4/4
K:F
V:1 treble nm="Soprano" snm="S"
V:2 bass nm="Bass" snm="B"
V:3 bass nm="MusicXML Part"
V:1
 B3 c d4- | d4 A4 | z2 B4 c2 | A4 G2 A2 | A4 A2 A2 | B2 c2 d4- | d2 c2 c4 | B4 B2 B2 | F2 AB c4 | %9
w: Ar- * *|* do,|ar- do|si, ma non|vo- glio, che|l'ar- dor mio|_ mal fag-|gio, ad in-|giu- sto vo- ler,|
 B2 B2 B2 BA | G4 z2 c2- | cc B2 A4 | G8 :: d2 d2 d4- | d4 G2 A2 | A4 A4 | A2 A2 A2 AA | %17
w: ad in- giu- sto vo-|ler, a-|* pra le por-|te:|et fe ben|_ du- ra|sor- te,|al- mi'hon- ne- sto de-|
 A2 A2 A4- | A2 F2 E4 | D4 z2 A2 | B2 B2 B2 c2 | d2 f2 _e2 d2 | c4 B2 d2 | c3 d B3 c | A4 A2 d2 | %25
w: sir fa gra-|* ve'ol- trag-|gio, con-|tra si fier de-|sti- n'ho tant' or-|go- glio, che-|dir ar- di- se'il|co- re, sia|
 c2 B2 A2 A2 | G4 z2 d2 | c2 B2 A2 A2 | G2 D2 E2 G2 | ^F4 G2 d2 | c2 B2 A4 | G2 =B2 c4- | %32
w: ca- sto'il mio pen-|sier, sia|ca- sto'il mio pen-|sier, cre- sca l'ar-|do- re, cre-|sca l'ar- do-|re, cre- sca|
 c2 B2 A4 | G8 :| %34
w: _ l'ar- do-|re.|
V:2
 G,8 | D,8 | z2 G,4 C,2 | D,4 _E,2 C,2 | D,4 D,2 D,2 | G,2 F,2 B,,4 | _E,4 F,4 | B,,8 | %8
w: Ar-|do,|ar- do|si, ma non|vo- glio, che|l'ar- dor mio|mal fag-|gio,|
"^b" F,2 F,2 C,2 E,F, | G,4 G,2 G,2 | _E,2 E,D, C,2 C,2 | D,2 D,2 D,4 | G,,8 :: G,2 G,2 G,4 | %14
w: ad in- giu- sto vo-|ler, ad in-|giu- sto vo- ler, a-|pra le por-|te:|et fe ben|
 _E,6 C,2 | D,4 D,4 | D,2 D,2 D,2 D,D, | D,2 D,2 D,2 B,,2 | A,,8 | D,4 z2 D,2 | G,2 G,2 G,2 F,2 | %21
w: du- ra|sor- te,|al mi'ho- ne- sto de-|sir fa gra- ve'ol-|trag-|gio, con-|tra si fier de-|
 B,,2 B,,2 _E,2 B,,2 | F,4 B,,2 B,,2 | F,3 D, _E,3 C, | D,4 D,2 G,,2 | A,,2 B,,2 C,2 D,2 | %26
w: sti- n'ho tant' or-|go- glio, che|dir ar- d- se'il|co- re, sia|ca- sta'il mio pen-|
 G,,4 z2 B,,2 | C,2 C,2 D,2 D,2 | G,,2 B,,2 C,2 C,2 | D,4 G,2 D,2 | E,2 G,2 ^F,4 | G,4 z2 E,2 | %32
w: sier, sia|ca- sto'il mio pen-|sier, cre- sca l'ar-|do- re, cre-|sca l'ar- do-|re, cre-|
 ^F,2 G,2 D,4 | G,,8 :| %34
w: sca l'ar- do-|re.|
V:3
 G,8 | D,8 | z2 G,4 C,2 | D,4 _E,2 C,2 | D,6 D,2 | G,2 F,2 B,,4 | _E,4 F,4 | B,,8 | F,4 C,2 E,F, | %9
"^b" G,4 G,4 | _E,3 D, C,4 | D,8 | G,,8 :: G,4 G,4 | _E,6 C,2 | D,8 | D,6 D,2 | D,6 B,,2 | A,,8 | %19
 D,4 z2 D,2 | G,6 F,2 | B,,4 _E,2 B,,2 | F,4 B,,2 B,,2 | F,3 D, _E,3 C, | D,4 D,2 G,,2 | %25
 A,,2 B,,2 C,2 D,2 | G,,4 z2 B,,2 | C,4 D,4 | G,,2 B,,2 C,4 | D,4 G,2 D,2 | E,2 G,2 ^F,4 | %31
 G,4 z2 E,2 | ^F,2 G,2 D,4 | G,,8 :| %34

